usr/share/icons/biglinux-icons-material-dark/symbolic/actions/document-export-symbolic-rtl.svg

<svg version="1.1" viewBox="0 0 16 16" xmlns="http://www.w3.org/2000/svg">
 <defs>
  <style id="current-color-scheme" type="text/css">.ColorScheme-Text {
        color:#dedede;
      }</style>
 </defs>
 <path d="m5 0c-1.1046 0-2 0.89543-2 2v4.207c0.32228-0.09115 0.65659-0.1546 1-0.18555v-4.0215c0-0.55228 0.44787-0.98723 1-1h4v3.5c0 0.82843 0.6716 1.5 1.5 1.5h3.5v7c0 0.5523-0.4477 1-1 1h-3.5996c-0.1829 0.3578-0.40457 0.6929-0.6582 1h4.2578c1.1046 0 2-0.8954 2-2v-7.5859c0-0.39782-0.15815-0.7792-0.43945-1.0605l-3.9141-3.9141c-0.2813-0.2813-0.66275-0.43945-1.0605-0.43945h-4.5859zm5 1.207 3.793 3.793h-3.293c-0.2761 0-0.5-0.22386-0.5-0.5z" fill="#dedede"/>
 <path d="m4.5 7c2.4853 0 4.5 2.0147 4.5 4.5s-2.0147 4.5-4.5 4.5-4.5-2.0147-4.5-4.5 2.0147-4.5 4.5-4.5zm-0.58594 2.584c-0.12781 0-0.25558 0.050503-0.35352 0.14844l-1.3789 1.3809c-0.012338 0.01017-0.023859 0.02191-0.035156 0.0332-0.011297 0.0113-0.02303 0.02282-0.033203 0.03516v4e-3c-0.00543 0.0067-0.012548 0.01264-0.017578 0.01953-0.00278 0.0038-0.00514 0.0078-0.00781 0.01172-8.269e-4 0.0012-0.00114 0.0027-0.00195 0.0039-9.92e-4 0.0015-0.00293 0.0024-0.00391 0.0039-0.00784 0.0119-0.014661 0.02452-0.021484 0.03711-0.00111 2e-3 -0.00283 0.0038-0.00391 0.0059-0.00394 0.0075-0.0062 0.01568-0.00977 0.02344-0.0033 0.0072-0.0068 0.01413-0.00977 0.02148-0.011877 0.02946-0.02121 0.05983-0.027344 0.0918-0.00279 0.01452-0.0063 0.02997-0.00781 0.04492v4e-3c-0.0014443 0.015375-0.001945 0.030676-0.001945 0.046659 0 0.01598 4.229e-4 0.03096 0.00195 0.04687v4e-3c0.00152 0.01467 0.00499 0.03041 0.00781 0.04492 0.00613 0.03197 0.015466 0.06234 0.027344 0.0918 0.00296 0.0074 0.00647 0.01431 0.00977 0.02148 0.00123 0.0027 0.00263 0.0052 0.00391 0.0078 0.00243 5e-3 0.00326 0.01069 0.00586 0.01563 0.00109 0.0021 0.00279 0.0038 0.00391 0.0059 0.00676 0.0124 0.013597 0.02519 0.021484 0.03711 0.0054 0.0082 0.011719 0.01559 0.017578 0.02344 0.00434 0.0058 0.00905 0.01191 0.013672 0.01758 0.020611 0.02516 0.043268 0.04962 0.068359 0.07031l1.3789 1.3809c0.19587 0.19587 0.51116 0.19587 0.70703 0s0.19587-0.51116 0-0.70703l-0.56055-0.56055h2.793c0.277 0 0.5-0.223 0.5-0.5s-0.223-0.5-0.5-0.5h-2.793l0.56055-0.56055c0.19587-0.19587 0.19587-0.51116 0-0.70703-0.097934-0.097934-0.22571-0.14844-0.35352-0.14844z" fill="#dedede"/>
</svg>

<svg xmlns="http://www.w3.org/2000/svg" viewBox="0 0 16 16">
<style id="current-color-scheme" type="text/css">
.ColorScheme-Contrast{color:#dedede}
</style>
<path d="M5 0a2 2 0 0 0-2 2v4.207a5.5 5.5 0 0 1 1-.186V2c0-.552.448-.987 1-1h4v3.5A1.5 1.5 0 0 0 10.5 6H14v7a1 1 0 0 1-1 1H9.4a5.5 5.5 0 0 1-.658 1H13a2 2 0 0 0 2-2V5.414a1.5 1.5 0 0 0-.44-1.06L10.647.439A1.5 1.5 0 0 0 9.586 0zm5 1.207L13.793 5H10.5a.5.5 0 0 1-.5-.5z" class="ColorScheme-Contrast" style="fill:currentColor"/>
<path fill="currentColor" d="M4.5 7a4.5 4.5 0 1 1 0 9 4.5 4.5 0 0 1 0-9m-.586 2.584a.5.5 0 0 0-.353.148l-1.38 1.381q-.018.016-.035.034-.016.015-.033.035v.004l-.017.02-.008.011-.002.004-.004.004q-.012.018-.021.037l-.004.006-.01.023-.01.022a.5.5 0 0 0-.027.091q-.006.023-.008.045v.004a.5.5 0 0 0 0 .094v.004q.002.023.008.045a.5.5 0 0 0 .027.092l.01.021.004.008.006.016q0 .003.004.005.009.02.021.038l.018.023a.6.6 0 0 0 .082.088l1.379 1.38a.499.499 0 1 0 .707-.706L3.707 12H6.5a.499.499 0 1 0 0-1H3.707l.56-.561a.5.5 0 0 0 0-.707.5.5 0 0 0-.353-.149z"/>
</svg>
